teams/dark/113.svg

<svg xmlns="http://www.w3.org/2000/svg" viewBox="0 0 300 300"><title>Cincinnati Reds cap on dark logo</title><path fill="#fff" d="M162.59 92.98c-54.13 0-75.37 35.98-75.37 53.21 0 9.98 2.91 18.75 7.85 26.23 12.83 19.4 39.43 30.02 64.88 30.02 27.57 0 49.25-10.84 66.96-24.29h37.84c-17.64 29.46-55.13 53.4-103.59 53.4-55.33 0-77.09-23.74-102.71-50.95-10.51-11.16-17.08-21.24-34.1-33.79 0 0 .53-.18 1.76-1.02 3.36-2.29 12.16-9.55 31.29-32.21 19.74-23.38 53.31-49.33 99.12-49.33s91.62 21.12 109.37 56.17h-38.27c-8.06-12.75-33.19-27.44-65.02-27.44Zm96.63 120.59h-3.19v8.66h-2.16v-8.66h-3.18v-1.89h8.53Zm12.27 8.65v-8.39h-.04l-3.06 8.39h-2.08l-2.95-8.39h-.05v8.4h-2.15v-10.55h3.73l2.44 6.9h.05l2.55-6.9h3.71v10.54Z"/><path d="M161.18 231.54c48.46 0 85.96-23.94 103.59-53.4l2.65 6.2c-17.63 29.46-55.13 53.4-103.58 53.4-55.34 0-76.73-21.42-102.35-48.63-10.51-11.15-17.27-20.82-33.64-34.21l-3.49-8.09c17.02 12.56 23.58 22.63 34.1 33.79 25.62 27.21 47.37 50.95 102.71 50.95Zm3.255-132.24c-52.916.002-73.355 34.731-73.355 51.96 0 5.92.76 15.08 4 21.16-4.94-7.48-7.85-16.25-7.85-26.23 0-17.23 21.24-53.21 75.37-53.21 31.83 0 56.95 14.69 65.02 27.44h38.27s1.8 4.86 2.52 6.32h-40.07c-8.07-12.749-32.088-27.439-63.905-27.44"/></svg>

<svg width="300" height="300" viewBox="0 0 300 300" fill="none" xmlns="http://www.w3.org/2000/svg">
<path d="M162.59 92.98C108.46 92.98 87.22 128.96 87.22 146.19C87.22 156.17 90.13 164.94 95.07 172.42C107.9 191.82 134.5 202.44 159.95 202.44C187.52 202.44 209.2 191.6 226.91 178.15H264.75C247.11 207.61 209.62 231.55 161.16 231.55C105.83 231.55 84.07 207.81 58.45 180.6C47.94 169.44 41.37 159.36 24.35 146.81C24.35 146.81 24.88 146.63 26.11 145.79C29.47 143.5 38.27 136.24 57.4 113.58C77.14 90.2 110.71 64.25 156.52 64.25C202.33 64.25 248.14 85.37 265.89 120.42H227.62C219.56 107.67 194.43 92.98 162.6 92.98H162.59Z" fill="white"/>
<path d="M161.18 231.54C209.64 231.54 247.14 207.6 264.77 178.14L267.42 184.34C249.79 213.8 212.29 237.74 163.84 237.74C108.5 237.74 87.11 216.32 61.49 189.11C50.98 177.96 44.22 168.29 27.85 154.9L24.36 146.81C41.38 159.37 47.94 169.44 58.46 180.6C84.08 207.81 105.83 231.55 161.17 231.55L161.18 231.54ZM164.435 99.3C111.519 99.302 91.08 134.031 91.08 151.26C91.08 157.18 91.84 166.34 95.08 172.42C90.14 164.94 87.23 156.17 87.23 146.19C87.23 128.96 108.47 92.98 162.6 92.98C194.43 92.98 219.55 107.67 227.62 120.42H265.89C265.89 120.42 267.69 125.28 268.41 126.74H228.34C220.27 113.991 196.252 99.301 164.435 99.3Z" fill="black"/>
</svg>
